X: 19314
T: Jack Coughlan's
R: reel
M: 4/4
K: Gmajor
|:B|cABA G3 B|AE~ E2 GEDB|cABA G2 ge|1 dBAc BGG:|2 dBAc BAGE||
|:D3E G3A|BABd edBd|1 edef gage|dBAc BAGE:|2 edef gage|dBAc BGG||

